images/ai_activities_border.svg

<svg width="470" height="127" viewBox="0 0 470 127" fill="none" xmlns="http://www.w3.org/2000/svg">
<path d="M2.03073 0.309198C9.82088 0.0430357 17.6008 -0.0707142 25.6141 0.0452137C27.44 0.0714293 27.268 0.277146 28.0186 0.310419C29.3983 0.371871 31.7136 0.149892 32.0382 0.149892C34.0525 0.147063 33.2654 0.507128 33.5365 0.520996C36.5591 0.66718 35.6891 0.257053 38.5789 0.217643C42.3421 0.166224 47.171 0.239587 51.7051 0.259758C53.2975 0.267823 52.5886 0.541937 56.0252 0.51886C58.4598 0.502728 65.928 0.190306 69.3669 0.524048C69.3871 0.65007 68.9528 0.789208 68.7702 0.919262C73.6997 0.39402 75.464 0.417064 82.4528 0.545106C83.5585 0.565272 84.6054 0.349481 86.5531 0.429136C88.4998 0.508857 88.5821 0.841505 92.4971 0.837473C93.8857 0.835244 94.7283 0.600657 96.8576 0.590578C102.914 0.56135 114.448 0.85272 119.418 0.862803C129.207 0.882955 134.533 0.482589 143.226 0.621707C143.895 0.63179 142.425 0.88888 143.652 0.893932C144.89 0.898973 146.178 0.55836 146.483 0.550294C149.769 0.462622 156.713 0.918928 158.541 0.863718C162.984 0.728608 158.606 0.578507 164.763 0.513977C170.627 0.45257 178.722 0.896036 184.534 0.98274C191.269 1.0835 193.44 0.439337 198.512 1.11183C216.324 1.07251 234.208 1.04845 252.04 1.01417C251.99 1.14823 251.931 1.28235 251.87 1.41641C253.28 1.32365 254.69 1.23075 256.1 1.13899C255.887 1.23879 255.685 1.33868 255.472 1.43747C262.095 1.0524 267.998 0.853756 275.736 0.959546C275.887 0.961552 275.489 1.22885 275.615 1.23574C277.359 1.28615 279.309 1.08053 280.841 1.12892C284.543 1.24488 290.833 1.82772 288.064 1.11489C296.695 1.26207 306.839 1.02106 315.065 1.15914C318.625 1.21861 319.692 1.64107 321.395 1.66544C323.097 1.68961 322.231 1.3266 322.835 1.31264C326.467 1.23199 332.443 1.24696 333.072 1.65323C333.803 1.49095 334.575 1.3267 335.315 1.16341C334.882 1.61387 346.103 1.42768 349.047 1.43869C349.585 1.4407 349.66 1.63816 350.066 1.63614C354.588 1.61085 355.693 1.30136 359.567 1.19851C360.927 1.16221 358.819 1.51018 362.308 1.35995C362.612 1.34675 362.451 1.03413 366.619 1.03615C373.274 1.03916 386.004 0.915173 393.926 1.06941C394.575 1.08151 392.599 1.42229 395.568 1.34286C396.643 1.31463 396.128 1.07265 398.735 1.07063C408.839 1.06056 419.612 1.33876 429.918 1.10787C429.542 1.3811 425.871 1.6876 431.389 1.5162C432.271 1.4879 431.613 1.2439 432.009 1.23482C435.213 1.16431 437.992 1.33861 441.461 1.24489C442.485 1.21666 442.74 1.02506 444.018 0.979689C445.904 0.91217 446.739 1.18536 448.93 1.06941C452.357 0.886927 452.886 0.627952 457.135 1.13594C460.75 1.1311 464.362 1.12376 467.973 1.11554L469.351 1.10968L469.357 2.5C469.404 22.9406 469.478 43.316 469.288 63.7134C469.433 70.6517 469.596 77.0543 469.651 84.2866C469.667 86.4168 469.32 86.824 469.435 90.2217C469.46 90.9825 469.833 96.4108 469.132 97.2021C469.192 98.7129 469.194 99.6678 469.232 100.966C469.335 99.9819 469.439 98.9664 469.542 98.023C469.43 103.501 469.678 107.974 469.794 112.823C469.88 116.392 469.58 113.858 469.61 116.048C469.639 118.239 469.707 119.236 469.347 121.974C469.518 122.863 469.569 123.628 469.569 124.5L469.576 126.09L467.973 126.097C466.734 126.097 465.28 125.994 462.953 125.987C462.527 125.986 460.064 126.147 458.005 126.115C456.524 126.092 456.085 125.833 453.734 125.873C453.349 125.879 448.377 126.2 446.794 126.229C444.329 126.275 440.412 125.943 439.935 125.939C433.007 125.881 430.337 126.209 425.418 125.669C424.424 125.99 420.319 126.178 417.002 126.146C412.812 126.107 404.412 125.452 403.266 126.144C398.417 125.836 398.944 126.026 393.194 126.032C387.96 126.038 374.104 125.773 369.862 125.812C365.622 125.849 367.688 126.234 366.004 126.286C363.248 126.371 364.737 126.087 362.85 126.091C357.515 126.103 352.878 126.157 347.786 126.281C347.512 126.082 347.218 125.881 346.934 125.682C346.67 125.748 346.408 125.815 346.144 125.881C345.049 125.879 343.821 125.883 342.807 125.877C351.366 126.753 334.539 125.812 329.487 125.79C325.227 125.772 318.135 126.188 313.459 126.277C312.324 126.299 313.104 126.084 312.871 126.089C310.132 126.15 309.716 126.297 306.034 126.277C304.087 126.266 302.099 125.996 300.202 125.991C286.275 125.955 272.834 126.226 258.997 126.255C256.644 126.26 254.614 125.931 252.636 125.924C249.807 125.913 248.021 126.183 245.364 126.188C242.717 126.192 238.901 125.869 237.105 125.918C235.31 125.967 238.382 126.279 235.096 126.194C233.586 126.154 236.252 125.921 234.387 125.914C228.564 125.892 220.348 126.181 214.15 125.901C214.424 125.971 214.798 126.033 215.133 126.1C208.529 126.073 202.695 125.905 195.878 125.881C193.494 125.872 189.195 126.077 186.852 126.076C184.51 126.075 183.444 125.853 181.568 125.847C180.797 125.844 181.098 126.042 180.581 126.038C174.11 125.986 170.56 125.632 163.785 125.672C138.962 125.82 113.366 125.947 88.1584 126.08C87.1448 126.085 86.4626 126.344 84.9823 126.382C82.702 126.442 82.5903 126.213 82.2861 126.205C80.2986 126.154 81.1092 126.366 78.4416 126.366C72.5681 126.366 63.0934 126.178 57.2403 126.195C43.7489 126.232 32.4081 126.434 19.1804 126.535C18.2268 126.544 18.8734 126.237 17.2199 126.233C10.4131 126.214 6.74056 126.306 1.97266 126.37L0.110618 126.378L0.102634 124.5C0.0573877 121.105 0.026713 117.154 0.0610983 111.122C0.143781 96.6153 0.329429 69.2359 0.371776 52.2552C0.372488 52.2552 0.3732 52.2552 0.373912 52.2552C-0.192687 46.9098 -0.0517609 39.9937 0.376659 34.2525C1.64243 64.2423 1.25151 93.0582 1.20779 124.5L1.21106 125.268L1.97266 125.265C5.24429 125.269 8.54421 125.27 11.877 125.265C49.0443 125.207 88.6662 124.192 126.331 124.33C129.871 124.343 131.293 124.666 134.275 124.598C134.78 124.587 133.474 124.338 135.025 124.313C156.327 123.974 179.04 124.541 199.956 124.384C205.596 124.342 206.48 124.064 211.441 123.993C210.568 124.124 209.998 124.261 209.238 124.393C231.879 124.802 254.553 124.62 277.489 124.678C278.524 124.681 278.656 124.952 279.741 124.963C281.912 124.984 283.991 124.685 285.887 124.675C288.362 124.662 288.791 124.878 291.073 124.864C292.187 124.856 291.854 124.649 294.276 124.684C294.479 124.687 294.612 124.905 296.223 124.877C300.635 124.799 309.653 124.617 313.306 124.562C317.971 124.493 321.715 124.82 323.48 124.842C328.247 124.899 328.148 124.563 332.183 124.563C360.912 124.561 388.375 124.943 417.782 124.94C419.63 124.94 426.463 124.566 429.881 124.581C431.027 124.587 437.018 124.686 437.916 124.694C441.558 124.726 444.705 124.951 446.713 124.999C450.608 125.092 454.961 124.739 457.081 124.703C460.25 124.65 465.514 124.676 467.973 124.69L468.164 124.69L468.163 124.5C468.166 124.071 468.168 123.727 468.169 123.495C468.191 119.721 468.628 120.968 468.526 118.26C468.495 117.46 468.161 118.298 468.161 115.478C468.162 113.116 468.414 112.161 468.459 110.548C468.504 108.936 468.115 105.977 468.125 104.972C468.179 99.7173 468.434 97.392 468.447 91.6707C468.457 86.9201 468.279 64.9605 468.187 63.1347C467.777 54.9581 467.961 68.5758 467.947 69.3435C467.868 73.4923 467.71 72.8853 468.011 77.0237C467.084 80.7263 468.527 93.6304 467.428 96.9374C468.16 100.356 467.791 103.228 467.644 106.829C467.44 111.807 467.867 108.016 467.87 111.647C467.87 113.079 467.538 117.227 467.584 119.377C467.626 121.31 467.837 122.237 467.889 124.5L467.973 124.416C467.72 124.422 467.45 124.426 467.161 124.427C462.019 124.453 457.88 124.334 453.559 124.029C452.768 124.164 452.03 124.299 451.249 124.434C448.266 124.289 445.272 124.145 442.29 124.001C442.767 124.119 443.244 124.238 443.721 124.356C442.849 124.373 441.974 124.389 441.101 124.405C438.2 124.228 435.43 124.063 432.447 123.88C424.344 124.562 426.696 123.972 422.192 123.883C417.69 123.794 415.084 124.189 411.605 124.191C406.919 124.194 404.767 124.244 400.04 124.215C397.301 124.199 392.655 123.818 396.469 124.422C387.918 124.47 376.21 124.639 368.561 124.394C366.303 124.322 369.314 124.132 368.929 124.109C367.012 123.997 365.398 124.305 363.42 124.261C360.134 124.187 353.734 123.947 351.146 123.891C347.423 123.809 341.57 124.208 340.972 124.238C337.626 124.4 336.73 124.068 335.656 124.091C329.539 124.224 328.189 124.364 326.262 123.664C324.679 123.966 318.045 124.475 316.442 123.966C316.401 124.426 310.894 124.349 307.506 124.464C306.877 124.33 306.237 124.198 305.608 124.064C298.538 124.887 284.458 124.289 275.156 124.191C274.923 124.189 274.506 124.534 273.106 124.456C273.017 124.45 273.162 124.295 272.222 124.275C269.128 124.21 257.323 123.824 255.965 123.82C250.964 123.807 250.09 124.064 247.047 124.088C243.04 124.121 242.461 123.889 238.649 123.922C236.864 123.937 235.24 124.242 232.431 124.199C230.768 124.174 230.603 123.934 229.286 123.915C224.6 123.845 221.158 123.997 216.999 123.684C215.913 124.447 213.926 123.885 211.867 123.827C203.508 123.592 193.091 123.915 185.919 123.845C163.542 123.626 143.7 123.156 121.84 123.05C118.289 123.033 117.434 123.416 113.711 123.392C112.038 123.381 110.312 123.103 107.574 123.099C105.374 123.095 102.22 123.236 99.4723 123.235C98.7419 123.235 98.6768 122.975 97.6016 122.973C89.4465 122.958 81.4828 123.143 73.2467 123.27C70.1941 123.317 68.3061 122.972 68.8234 123.572C67.6569 123.425 66.5229 123.297 65.4274 123.152C61.2277 123.53 57.798 123.136 52.1172 123.232C51.5048 123.244 47.2157 123.659 44.7824 123.359C44.6101 123.573 44.988 123.755 44.917 123.948C42.5133 124.03 38.82 123.783 37.1965 123.758C35.5755 123.732 34.4902 124.01 34.0024 124.013C32.146 124.02 32.5787 123.655 32.4367 123.649C23.7852 123.299 24.6959 123.493 19.4719 124.041C18.1632 124.179 9.28164 123.778 7.48515 124.21C7.40427 124.034 7.89925 123.879 8.04141 123.71C6.02583 123.676 3.99841 123.641 1.97266 123.606L2.86616 124.5C2.87736 123.844 2.88853 123.189 2.89962 122.534C2.73023 123.102 2.56067 123.784 2.39027 124.302C2.53745 118.835 2.13832 114.289 2.15131 109.816C2.15937 107.26 2.53358 107.572 2.45191 106.07C2.43573 105.776 2.18289 106.273 2.1626 105.402C1.99825 98.2908 2.26539 95.1753 2.3158 88.0541C2.33988 84.7173 1.88029 81.7968 2.18274 77.0094C2.21106 76.5723 2.61915 71.8757 2.03442 68.9748C2.21894 68.0517 2.31586 67.2376 2.47114 66.5478C1.60301 60.6744 2.45381 62.2975 2.65547 54.3547C2.76026 50.2445 2.60814 36.4197 2.51539 31.9467C2.45888 29.2826 2.11766 29.3311 2.104 28.8557C2.02537 26.0158 2.3561 26.0135 2.30176 23.3872C2.24732 20.7599 1.87318 17.4409 1.90746 14.7425C1.93387 12.6756 2.3448 14.3049 2.20166 11.2523C2.17068 10.6201 1.82194 12.4266 1.95874 9.20669C1.97991 8.69948 2.35712 3.555 2.43879 2.5C2.65759 5.20874 2.94304 13.0603 3.03176 16.0121C3.83778 42.7459 4.2243 83.7419 4.38162 124.5L1.97266 122.091C38.7129 121.949 75.2599 121.994 100.993 122.085C106.034 122.102 109.33 122.461 112.617 122.492C115.903 122.524 113.124 122.195 116.107 122.222C119.089 122.25 121.262 122.482 124.052 122.502C142.858 122.64 161.806 122.785 180.46 122.848C185.298 122.864 189.165 122.597 193.568 122.597C195.281 122.597 195.334 122.942 196.551 122.939C209.667 122.912 221.8 122.58 234.844 122.62C240.261 122.637 246.113 122.928 251.479 122.955C255.901 122.978 260.486 122.78 264.462 122.776C266.62 122.773 267.758 123.035 268.539 123.056C271.258 123.124 270.308 122.804 271.698 122.804C275.531 122.805 277.438 123.192 281.029 123.162C282.438 123.15 282.257 122.903 284.303 122.864C286.9 122.816 285.939 123.044 287.794 123.052C287.905 123.053 287.542 122.876 288.525 122.869C294.855 122.823 302.758 122.684 308.865 122.696C321.494 122.72 333.96 123.06 345.727 123.127C348.699 123.143 347.91 122.913 348.854 122.902C353.397 122.849 355.02 123.124 359.777 123.026C360.569 123.009 363.755 122.691 366.798 122.772C368.441 122.815 370.306 123.014 371.706 123.06C373.105 123.106 373.33 122.814 375.012 122.814C378.076 122.813 377.185 123.015 381.566 122.979C383.331 122.965 389.224 122.688 393.768 122.709C401.194 122.743 410.396 122.996 419.151 123.001C422.153 123.003 426.01 122.702 430.667 122.699C436.357 122.695 446.843 122.763 452.675 122.767C455.658 122.769 455.873 123.084 456.228 123.097C458.509 123.185 457.588 122.833 459.117 122.847C461.217 122.866 463.177 123.126 465.084 123.143C466.3 123.154 466.493 122.894 466.757 122.892C467.164 122.889 467.569 122.886 467.973 122.882L466.355 124.5C466.281 115.236 466.302 106.93 466.275 97.6372C466.185 66.0265 466.026 34.2321 465.95 2.5L467.973 4.52308C447.497 4.57253 427.047 4.5879 406.689 4.52898C402.337 4.51688 402.174 4.19009 398.349 4.2415C394.525 4.29191 390.831 4.99771 387.686 4.21831C387.585 4.3756 387.595 4.48774 387.493 4.63092C379.591 4.40915 371.689 4.6387 363.959 4.66693C358.239 4.68809 353.165 4.66301 347.881 4.64587C343.197 4.62968 343.601 4.35563 339.546 4.71332C319.389 4.48948 299.017 4.54398 279.033 4.17192C274.346 4.75773 269.854 4.38864 263.372 4.30193C262.572 4.29096 263.43 4.50471 261.057 4.48656C258.077 4.46424 256.534 4.13767 251.515 4.15574C250.186 4.16078 240.344 4.52285 236.702 4.33733C233.061 4.15183 227.786 4.04295 224.002 3.86551C224.54 4.00564 225.221 4.1397 225.819 4.27782C223.932 4.30202 222.035 4.32534 220.149 4.34954C219.875 4.18115 219.6 4.01263 219.337 3.84323C218.241 4.00354 217.145 4.16188 216.039 4.32421C213.656 3.4592 216.1 3.74133 210.795 3.96012C208.137 4.06901 206.028 3.91788 203.299 4.00559C202.316 4.03783 201.687 4.29254 200.603 4.32512C197.946 4.40375 199.494 4.05318 197.853 4.05503C196.199 4.05806 193.826 4.44312 190.864 4.27171C193.956 3.58522 185.018 3.80916 184.592 4.34252C183.528 4.3435 182.636 4.32133 181.461 4.33641C182.546 2.98934 176.974 3.94529 174.763 4.1298C172.553 4.31405 172.642 3.95211 172.125 3.96622C170.635 4.00557 171.72 4.15586 170.676 4.16093C163.758 4.19118 157.244 3.97021 150.417 3.95005C149.435 3.94718 150.306 4.15172 149.161 4.13163C148.015 4.11147 146.916 3.90786 145.222 3.92197C144.768 3.92555 144.625 4.10522 143.917 4.10539C129.076 4.09732 114.985 3.94425 99.8498 3.92106C98.4805 3.91904 97.4053 4.2385 94.7581 4.22746C92.111 4.21637 88.0943 3.92807 84.808 3.9058C83.9356 3.89975 83.6989 4.16585 82.5425 4.1588C78.6073 4.13455 75.2174 3.91789 71.1299 3.8826C64.2228 3.82317 56.991 3.98551 49.9825 3.82828C48.6538 3.79904 48.8661 3.5771 46.9499 3.51455C43.6429 3.40666 44.8874 3.7303 44.2179 3.77365C42.0275 3.9137 41.3392 3.48357 39.2204 3.5942C38.8964 3.61131 39.3585 3.8664 39.0678 3.8704C34.5639 3.91476 34.3274 3.31691 29.5394 3.63754C25.2815 3.29379 32.3935 3.17669 33.1238 2.99421C34.9075 2.55064 30.1923 2.02939 27.413 1.86198C25.0196 1.71783 25.0372 1.99399 24.0843 1.99412C19.0431 1.99513 11.5359 2.04764 7.70114 1.9166C5.37814 1.83796 9.56539 1.72292 8.37854 1.63217C7.20221 1.54155 6.44066 1.7491 5.23379 1.52231C4.02665 1.29544 1.5641 0.627817 2.03073 0.309198ZM425.544 1.79545C417.814 2.88435 397.315 2.7706 386.309 2.66675C377.179 2.58004 369.308 1.74103 371.195 2.95698C381.064 2.96503 389.047 2.84309 399.484 2.88038C400.57 2.88441 407.044 2.99724 409.295 3.01741C410.563 3.02853 410.604 3.22939 412.328 3.22737C412.703 3.22635 414.784 2.96396 415.545 2.97102C418.151 2.99426 425.902 3.39708 426.984 3.38546C429.985 3.35119 428.833 3.039 430.129 2.98231C434.481 2.79477 434.96 3.26365 439.271 3.1114C440.042 3.08418 442.599 2.67557 445.794 2.72901C447.093 2.75123 449.304 2.96218 450.298 2.9521C455.715 2.89763 461.762 2.61823 466.722 2.66461C467.208 2.6692 467.62 2.67773 467.973 2.68929L467.783 2.5C467.698 5.10047 467.449 4.4789 467.412 6.3723C467.371 8.52265 467.737 11.1194 467.758 12.59C467.791 14.9432 467.583 17.8038 467.586 18.5341C467.648 32.918 467.889 45.7095 467.975 59.5862C468.119 50.1625 468.252 40.7496 468.401 31.3867C468.074 26.0714 468.381 28.7174 468.483 25.2183C468.563 22.4495 468.01 21.7795 468.071 18.1393C468.071 18.1423 468.071 18.1453 468.071 18.1483C468.103 16.2716 468.487 12.2039 468.326 8.20711C468.32 8.06506 468.033 7.70912 468.023 4.71694C468.021 4.01461 468.017 3.27323 468.012 2.5L468.012 2.46026L467.973 2.46043C461.342 2.50044 452.369 2.61284 445.592 2.5578C443.371 2.53965 443.823 2.23804 441.196 2.20073C439.28 2.17375 437.06 2.45262 434.059 2.39025C430.295 2.3106 428.49 1.83089 425.903 2.49737C425.69 2.25942 425.798 2.02735 425.544 1.79545ZM217.672 2.3753C217.144 2.34896 210.064 1.60503 212.163 2.39941C221.679 2.74424 231.966 2.57296 241.978 2.76654C238.559 1.98109 232.776 2.29066 225.756 2.34814C225.753 2.34814 225.75 2.34814 225.747 2.34814C225.416 2.35081 226.801 2.14553 224.917 2.18273C224.004 2.20087 220.503 2.51545 217.672 2.3753Z" fill="#78A564" fill-opacity="0.5"/>
</svg>

<svg xmlns="http://www.w3.org/2000/svg" width="470" height="127" fill="none" viewBox="0 0 470 127"><path fill="#78a564" fill-opacity=".5" d="M2.03.3A482 482 0 0 1 25.61.06c1.83.02 1.66.23 2.4.26 1.39.06 3.7-.16 4.03-.16 2.01 0 1.23.36 1.5.37 3.02.15 2.15-.26 5.04-.3 3.76-.05 8.6.02 13.13.04 1.59 0 .88.28 4.32.26 2.43-.02 9.9-.33 13.34 0 .02.13-.42.27-.6.4 4.93-.53 6.7-.5 13.68-.37 1.1.02 2.16-.2 4.1-.12 1.95.08 2.03.41 5.95.4 1.39 0 2.23-.23 4.36-.24 6.05-.03 17.59.26 22.56.27 9.79.02 15.11-.38 23.8-.24.68.01-.8.27.43.27 1.24 0 2.53-.33 2.83-.34 3.29-.09 10.23.37 12.06.31 4.44-.13.07-.28 6.22-.35 5.87-.06 13.96.39 19.77.47 6.74.1 8.91-.54 13.98.13l53.53-.1q-.07.2-.17.4l4.23-.27-.63.3c6.63-.39 12.53-.59 20.27-.48.15 0-.25.27-.12.28 1.74.05 3.69-.16 5.22-.11 3.7.11 10 .7 7.22-.02 8.63.15 18.78-.09 27 .05 3.56.06 4.63.48 6.33.5s.84-.33 1.44-.35c3.64-.08 9.61-.06 10.24.34l2.25-.49c-.44.45 10.78.27 13.73.28.53 0 .61.2 1.02.2 4.52-.03 5.62-.34 9.5-.44 1.36-.04-.75.31 2.74.16.3-.01.14-.33 4.3-.32 6.66 0 19.4-.12 27.32.03.64.01-1.33.35 1.64.27 1.07-.03.56-.27 3.17-.27 10.1 0 20.87.27 31.18.04-.38.27-4.05.58 1.47.4.88-.02.22-.27.62-.28 3.2-.07 5.98.1 9.45.01 1.03-.02 1.28-.21 2.56-.26 1.88-.07 2.72.2 4.91.09 3.43-.18 3.96-.44 8.2.07l10.84-.02 1.38-.01V2.5c.05 20.44.13 40.82-.06 61.21.14 6.94.3 13.34.36 20.58.02 2.13-.33 2.53-.21 5.93.02.76.4 6.2-.3 6.98.05 1.51.05 2.47.1 3.77l.3-2.95c-.11 5.48.14 9.95.25 14.8.09 3.57-.21 1.04-.18 3.23s.1 3.19-.26 5.92c.17.9.22 1.66.22 2.53v1.59h-1.6c-1.24 0-2.69-.1-5.02-.1-.42 0-2.89.16-4.94.13-1.49-.03-1.93-.29-4.28-.25-.38 0-5.35.33-6.94.36-2.46.05-6.38-.29-6.86-.3-6.92-.05-9.6.28-14.51-.26-1 .32-5.1.5-8.42.48-4.19-.04-12.59-.7-13.73 0-4.85-.31-4.33-.12-10.08-.12-5.23 0-19.09-.26-23.33-.22s-2.17.42-3.86.48c-2.75.08-1.26-.2-3.15-.2-5.34.01-9.97.07-15.06.2l-.86-.6-.79.2-3.33-.01c8.56.87-8.27-.07-13.32-.09-4.26-.02-11.36.4-16.03.49-1.14.02-.36-.2-.59-.2-2.74.07-3.15.22-6.84.2-1.94-.01-3.93-.28-5.83-.29-13.93-.03-27.37.24-41.2.27-2.36 0-4.39-.33-6.36-.34-2.83 0-4.62.26-7.28.27-2.64 0-6.46-.32-8.26-.27s1.28.36-2 .27c-1.51-.04 1.15-.27-.71-.28-5.83-.02-14.04.27-20.24 0l.98.19c-6.6-.03-12.44-.2-19.25-.22-2.39 0-6.69.2-9.03.2s-3.4-.23-5.28-.23c-.77 0-.47.2-.99.19-6.47-.05-10.02-.4-16.8-.37-24.82.15-50.41.28-75.62.41-1.02 0-1.7.26-3.18.3-2.28.06-2.39-.17-2.7-.17-1.98-.06-1.17.16-3.84.16-5.87 0-15.35-.2-21.2-.18-13.5.04-24.83.24-38.06.34-.95.01-.3-.3-1.96-.3-6.8-.02-10.48.08-15.25.14H.11v-1.87c-.05-3.4-.08-7.35-.05-13.38.08-14.5.27-41.88.31-58.86-.56-5.35-.42-12.27 0-18 1.27 29.98.88 58.8.84 90.24v.77h10.66c37.17-.06 76.8-1.08 114.46-.94 3.54.01 4.96.34 7.95.27.5-.01-.8-.26.75-.29 21.3-.34 44.01.23 64.93.07 5.64-.04 6.52-.32 11.48-.39-.87.13-1.44.27-2.2.4 22.64.41 45.31.23 68.25.29 1.03 0 1.17.27 2.25.28 2.17.02 4.25-.27 6.15-.28 2.47-.02 2.9.2 5.18.18 1.12 0 .78-.21 3.2-.18.2 0 .34.22 1.95.2l17.09-.32c4.66-.07 8.4.26 10.17.28 4.77.06 4.67-.28 8.7-.28 28.73 0 56.2.38 85.6.38 1.85 0 8.68-.37 12.1-.36 1.15 0 7.14.1 8.04.11 3.64.04 6.78.26 8.8.3 3.89.1 8.24-.25 10.36-.29 3.17-.05 8.43-.02 10.9-.01h.18v-1.19c.03-3.78.47-2.53.37-5.24-.03-.8-.37.04-.37-2.78 0-2.36.25-3.32.3-4.93s-.34-4.57-.33-5.58c.05-5.25.3-7.58.32-13.3 0-4.75-.17-26.71-.26-28.54-.41-8.17-.23 5.45-.24 6.21-.08 4.15-.24 3.55.06 7.68-.93 3.7.52 16.61-.58 19.92.73 3.42.36 6.29.21 9.89-.2 4.98.23 1.19.23 4.82 0 1.43-.33 5.58-.29 7.73.05 1.93.26 2.86.3 5.12l.1-.08h-.82c-5.14.03-9.28-.09-13.6-.4l-2.31.41-8.96-.43 1.43.36-2.62.05-8.65-.53c-8.1.68-5.75.1-10.26 0-4.5-.09-7.1.3-10.58.31-4.7 0-6.84.05-11.57.03-2.74-.02-7.39-.4-3.57.2-8.55.05-20.26.22-27.9-.03-2.27-.07.74-.26.36-.28-1.92-.11-3.53.2-5.51.15-3.29-.07-9.69-.31-12.27-.37-3.73-.08-9.58.32-10.18.35-3.34.16-4.24-.17-5.31-.15-6.12.13-7.47.27-9.4-.43-1.58.3-8.21.81-9.82.3-.04.47-5.55.39-8.93.5l-1.9-.4c-7.07.83-21.15.23-30.45.13-.24 0-.65.34-2.05.27-.1-.01.05-.16-.89-.18-3.1-.07-14.9-.46-16.26-.46-5-.01-5.87.24-8.91.27-4.01.03-4.59-.2-8.4-.17-1.79.02-3.41.32-6.22.28-1.66-.03-1.83-.27-3.14-.28-4.69-.08-8.13.08-12.3-.24-1.08.77-3.06.2-5.12.15-8.36-.24-18.78.09-25.95.02-22.38-.22-42.22-.7-64.08-.8-3.55-.02-4.4.37-8.13.34-1.67 0-3.4-.29-6.14-.3-2.2 0-5.35.15-8.1.14-.73 0-.8-.26-1.87-.26-8.15-.01-16.12.17-24.35.3-3.06.05-4.94-.3-4.43.3q-1.74-.2-3.4-.42c-4.2.38-7.62-.01-13.3.08-.62.01-4.9.43-7.34.13-.17.21.2.4.14.59-2.4.08-6.1-.17-7.72-.2s-2.71.26-3.2.26c-1.85.01-1.42-.36-1.56-.36-8.65-.35-7.74-.16-12.97.4-1.3.13-10.19-.27-11.98.16-.09-.18.4-.33.55-.5l-6.07-.1.9.89q0-.99.03-1.97c-.17.57-.34 1.25-.51 1.77.15-5.47-.25-10.01-.24-14.48 0-2.56.38-2.25.3-3.75-.01-.3-.27.2-.29-.67-.16-7.1.1-10.22.16-17.35.02-3.33-.44-6.25-.14-11.04.03-.44.44-5.13-.15-8.04.19-.92.29-1.73.44-2.42-.87-5.88-.02-4.25.19-12.2.1-4.1-.05-17.93-.14-22.4-.06-2.67-.4-2.62-.42-3.1-.07-2.83.26-2.84.2-5.46s-.43-5.95-.4-8.65c.03-2.06.44-.44.3-3.49-.03-.63-.38 1.18-.24-2.04.02-.51.4-5.66.48-6.71.22 2.7.5 10.56.6 13.51.8 26.74 1.18 67.73 1.34 108.49l-2.4-2.4c36.73-.15 73.28-.1 99.01-.02 5.04.02 8.34.38 11.63.41 3.28.03.5-.3 3.49-.27 2.98.03 5.15.26 7.94.28 18.8.14 37.76.28 56.41.35 4.84.01 8.7-.25 13.1-.25 1.72 0 1.77.34 3 .34 13.1-.03 25.24-.36 38.28-.32 5.42.02 11.27.3 16.64.33 4.42.03 9-.17 12.98-.17 2.16 0 3.3.25 4.08.28 2.72.06 1.77-.26 3.16-.26 3.83 0 5.74.4 9.33.36 1.4-.01 1.23-.26 3.27-.3 2.6-.04 1.64.18 3.5.2.1 0-.26-.18.72-.2 6.34-.04 14.24-.18 20.35-.16 12.62.02 25.09.36 36.86.43 2.97.01 2.18-.22 3.12-.23 4.55-.05 6.17.22 10.93.13.79-.02 3.98-.34 7.02-.26 1.64.05 3.5.24 4.9.29s1.63-.25 3.31-.25c3.07 0 2.18.2 6.56.17 1.76-.02 7.65-.3 12.2-.27 7.42.03 16.63.29 25.38.3 3 0 6.86-.3 11.52-.31 5.69 0 16.17.06 22 .07 2.99 0 3.2.31 3.56.33 2.28.09 1.36-.27 2.89-.25 2.1.02 4.06.28 5.96.3 1.22 0 1.41-.26 1.68-.26h1.21l-1.62 1.61c-.07-9.26-.05-17.57-.08-26.86-.08-31.61-.24-63.4-.32-95.14l2.02 2.02q-30.72.09-61.28 0c-4.35 0-4.52-.33-8.34-.28s-7.52.76-10.66-.02c-.1.16-.1.27-.2.41-7.9-.22-15.8 0-23.53.04-5.72.02-10.8 0-16.08-.02-4.68-.02-4.28-.3-8.33.06-20.16-.22-40.53-.17-60.52-.54-4.68.59-9.18.22-15.66.13-.8 0 .06.2-2.31.19-2.98-.03-4.53-.35-9.55-.33-1.32 0-11.17.36-14.8.18-3.65-.19-8.92-.3-12.7-.47.53.14 1.21.27 1.8.4l-5.66.08-.81-.5-3.3.47c-2.38-.86.06-.58-5.25-.36-2.65.1-4.76-.04-7.5.05-.97.03-1.6.28-2.69.32-2.65.07-1.1-.28-2.75-.27-1.65 0-4.02.38-6.99.21 3.1-.68-5.84-.46-6.27.07-1.06 0-1.95-.02-3.13 0 1.09-1.35-4.49-.4-6.7-.21-2.2.18-2.12-.18-2.63-.16-1.5.04-.41.19-1.45.2-6.92.02-13.44-.2-20.26-.22-.98 0-.11.2-1.26.18s-2.24-.22-3.94-.2c-.45 0-.6.18-1.3.18-14.84-.01-28.93-.17-44.07-.19-1.37 0-2.44.32-5.1.3-2.64 0-6.66-.3-9.94-.31-.87-.01-1.11.26-2.27.25-3.93-.03-7.32-.24-11.41-.28-6.9-.06-14.14.1-21.15-.05-1.33-.03-1.11-.25-3.03-.32-3.3-.1-2.06.22-2.73.26-2.2.14-2.88-.29-5-.18-.32.02.14.28-.15.28-4.5.04-4.74-.55-9.53-.23-4.26-.35 2.85-.46 3.58-.65 1.79-.44-2.93-.96-5.7-1.13-2.4-.14-2.38.13-3.34.13-5.04 0-12.54.06-16.38-.07-2.32-.08 1.87-.2.68-.29-1.18-.09-1.94.12-3.15-.1C4.03 1.3 1.56.62 2.03.3m423.51 1.5c-7.73 1.08-28.23.97-39.23.87-9.13-.09-17-.93-15.12.29 9.87 0 17.86-.12 28.3-.08 1.08 0 7.55.12 9.8.14 1.27 0 1.31.2 3.04.2.37 0 2.45-.26 3.22-.25 2.6.02 10.35.43 11.43.42 3-.04 1.85-.35 3.15-.4 4.35-.2 4.83.27 9.14.12.77-.03 3.33-.43 6.52-.38 1.3.02 3.51.23 4.5.22 5.42-.05 11.47-.33 16.43-.29q.73 0 1.25.03l-.19-.19c-.08 2.6-.33 1.98-.37 3.87-.04 2.15.33 4.75.35 6.22.03 2.35-.18 5.21-.17 5.94.06 14.39.3 27.18.39 41.06q.2-14.15.42-28.2c-.33-5.32-.02-2.67.08-6.17.08-2.77-.47-3.44-.4-7.08.02-1.87.4-5.94.25-9.93-.01-.14-.3-.5-.3-3.5L468 2.5v-.04h-.04c-6.63.04-15.6.15-22.38.1-2.22-.02-1.77-.32-4.4-.36-1.91-.03-4.13.25-7.13.19-3.76-.08-5.57-.56-8.16.1-.21-.23-.1-.46-.36-.7m-207.87.58c-.53-.03-7.6-.77-5.5.02 9.5.34 19.8.17 29.8.37-3.41-.79-9.2-.48-16.21-.42h-.01c-.33 0 1.05-.2-.83-.17-.92.02-4.42.34-7.25.2"/></svg>
